X:79
T:Whittington's Catt. ThoH.079
Q:1/2=100
M:3/2
L:1/8
B:Thompson's Compleat Collection of 120 Favourite Hornpipes.
Z:Village Music Project, Simon Wilson 2016
O:England.
K:F
f2c2d2B2A2F2|d2BAG2F2(F2E2)|F2AFG2BG ABc2|cfef dc=Bdc2C2:|
|:c3d _edec dBAB|GABc d=efg ec=Bc|cdef gbag afef|dcBA BGFEF4:|

